X: 58
T: Vincent Campbell's Mazurka
M: 3/4
L: 1/8
Q: 300
R: Mazurka
K: G
DG|B2 BA GE|D2 B,D B,D|E2 CE CE|D4 DG|
B2 BA GE|D2 B,D B,D|E2 F2 D2|G2-G2 :|
DG|B2 Bc dB|cB c2 DF|A2 AD dc|BA B2 DG|
B2 Bc dB|cB c2 DF|A2 Ac BA|G2-G2 :|
